communes/90.svg

<?xml version="1.0" encoding="UTF-8" standalone="no"?>
<!-- Created with Inkscape (http://www.inkscape.org/) -->
<svg
   xmlns:svg="http://www.w3.org/2000/svg"
   xmlns="http://www.w3.org/2000/svg"
   version="1.0"
   width="223.86151"
   height="262.2189"
   id="svg2780">
  <defs
     id="defs2782" />
  <g
     transform="translate(-12.151961,-789.19789)"
     id="layer1">
    <path
       d="M 13.214593,790.26052 L 17.246157,959.62382 C 20.125838,1080.5976 228.03959,1080.5976 230.91928,959.62382 L 234.95084,790.26052 L 13.214593,790.26052 z"
       id="path3282"
       style="fill:#ffffff;fill-opacity:1;fill-rule:evenodd;stroke:#000000;stroke-width:2.12526488;stroke-linecap:butt;stroke-miterlimit:4;stroke-dashoffset:0;stroke-opacity:1" />
    <path
       d="M 16.5,124.03125 L 17.25,155.28125 C 20.129681,276.25502 228.02656,276.25503 230.90625,155.28125 L 231.65625,124.03125 L 16.5,124.03125 z"
       transform="translate(0,804.33069)"
       id="rect3133"
       style="opacity:1;fill:#de4229;fill-opacity:1;fill-rule:evenodd;stroke:#000000;stroke-width:2.12598419;stroke-linecap:butt;stroke-linejoin:miter;marker:none;marker-start:none;marker-mid:none;marker-end:none;stroke-miterlimit:4;stroke-dasharray:none;stroke-dashoffset:0;stroke-opacity:1;visibility:visible;display:inline;overflow:visible;enable-background:accumulate" />
    <path
       d="M 2501.7412,442.74945 A 12.58616,12.58616 0 1 1 2476.5689,442.74945 A 12.58616,12.58616 0 1 1 2501.7412,442.74945 z"
       transform="matrix(0.1663208,0,0,0.1663208,-241.64836,775.32212)"
       id="path14345"
       style="opacity:1;fill:#ffff00;fill-opacity:1;fill-rule:evenodd;stroke:#000000;stroke-width:6.01247692px;stroke-linecap:butt;stroke-linejoin:round;marker:none;marker-start:none;marker-mid:none;marker-end:none;stroke-miterlimit:4;stroke-dasharray:none;stroke-dashoffset:0;stroke-opacity:1;visibility:visible;display:inline;overflow:visible;enable-background:accumulate" />
    <path
       d="M 176.84691,859.81986 C 175.65268,863.3537 179.3048,870.03791 175.8415,870.16025 C 173.37329,870.24744 171.90645,869.92443 169.96612,870.09187 C 168.15561,870.24811 166.80014,869.35459 167.47101,867.74978 C 168.36632,865.60811 168.82337,863.46612 167.8829,860.64601 C 167.08579,858.2558 169.74099,856.08765 172.31488,855.93245 C 174.72075,855.78738 177.55106,857.73624 176.84691,859.81986 z"
       id="path14349"
       style="opacity:1;fill:#ffff00;fill-opacity:1;fill-rule:evenodd;stroke:#000000;stroke-width:1px;stroke-linecap:butt;stroke-linejoin:round;marker:none;marker-start:none;marker-mid:none;marker-end:none;stroke-miterlimit:4;stroke-dasharray:none;stroke-dashoffset:0;stroke-opacity:1;visibility:visible;display:inline;overflow:visible;enable-background:accumulate" />
    <path
       d="M 108.33714,894.96744 L 91.122822,915.90403 L 122.95128,915.78301 L 137.92597,894.23271 C 135.30187,894.06238 134.52739,893.32969 134.70498,887.40794 L 124.04047,843.29157 L 98.731932,841.43852 C 97.713142,844.12296 97.072942,846.40122 95.739302,849.30825 C 94.373312,852.2858 97.837992,851.47625 96.384562,853.8354 C 94.892732,856.25688 93.233912,860.10119 91.738532,862.2074 C 90.271282,864.274 91.433582,865.4634 94.558772,866.51474 C 95.708902,866.90165 95.741352,867.16219 95.487702,867.87446 C 94.689252,870.11662 94.448752,869.82826 95.955112,870.72725 C 97.086332,871.40235 96.530682,871.85021 99.637212,871.3373 C 97.395012,871.46052 94.752862,873.12468 95.938562,873.86855 C 96.647232,874.31315 96.988102,874.46911 96.509232,875.9653 C 94.662642,881.73486 100.37456,883.36276 103.91013,883.01084 C 107.4457,882.65891 108.60066,882.99726 110.7663,882.96995 C 112.54777,882.94749 114.31919,882.74667 116.25575,881.9502 C 114.31919,882.74667 112.54777,882.94749 110.7663,882.96995 L 111.22654,894.26395"
       id="path3351"
       style="opacity:1;fill:#d5ab76;fill-opacity:1;fill-rule:evenodd;stroke:#000000;stroke-width:1px;stroke-linecap:butt;stroke-linejoin:round;marker:none;marker-start:none;marker-mid:none;marker-end:none;stroke-miterlimit:4;stroke-dasharray:none;stroke-dashoffset:0;stroke-opacity:1;visibility:visible;display:inline;overflow:visible;enable-background:accumulate" />
    <path
       d="M 139.41296,892.41679 C 130.04079,899.30335 122.71781,906.64862 117.22546,915.41679 C 111.47331,915.30535 105.53431,915.18817 99.944212,915.07304 C 102.31513,907.16463 105.7857,899.84027 109.91296,894.01054 C 103.34066,895.84163 96.162572,898.78472 89.912962,902.22929 C 89.701742,903.06798 89.513202,903.89749 89.319212,904.72929 C 80.934732,908.54826 74.106072,914.23398 69.256712,927.07304 L 117.50671,927.54174 L 126.10046,927.76054 C 126.12057,927.71714 126.1428,927.67874 126.16296,927.63554 L 181.38171,928.16674 C 181.65256,922.85574 177.48313,916.8696 172.53796,914.88554 C 174.02881,907.5959 163.34162,908.06543 154.44421,900.79179 C 155.04306,900.51039 155.62327,900.1907 156.22546,899.91679 C 150.83227,897.28227 145.71783,894.13962 139.41296,892.41679 z"
       id="path6403"
       style="fill:#0d090e;fill-opacity:1;fill-rule:evenodd;stroke:none;stroke-width:1px;stroke-linecap:butt;stroke-linejoin:miter;marker:none;marker-start:none;marker-mid:none;marker-end:none;stroke-miterlimit:4;stroke-dasharray:none;stroke-dashoffset:0;stroke-opacity:1;visibility:visible;display:inline;overflow:visible;enable-background:accumulate" />
    <path
       d="M 97.294882,927.15894 C 98.911662,915.1765 103.79632,901.39604 111.22823,893.57282"
       id="path3686"
       style="opacity:1;fill:none;fill-opacity:1;fill-rule:evenodd;stroke:#ffffff;stroke-width:1px;stroke-linecap:butt;stroke-linejoin:miter;marker:none;marker-start:none;marker-mid:none;marker-end:none;stroke-miterlimit:4;stroke-dasharray:none;stroke-dashoffset:0;stroke-opacity:1;visibility:visible;display:inline;overflow:visible;enable-background:accumulate" />
    <path
       d="M 145.42279,878.55275 C 148.26983,882.13667 151.37655,889.85487 142.11628,889.24835 C 132.7708,888.63624 121.7929,888.97755 119.07419,876.79841 C 116.39188,864.78235 122.98562,850.37452 106.60529,842.0844 L 94.189842,833.25881 C 118.57917,791.01151 172.62552,811.68869 174.52661,842.54512 C 174.77194,846.52698 172.87248,846.82184 170.12639,845.39426 C 167.35513,843.9536 165.17196,843.24586 159.1678,836.54133 C 157.3045,837.83989 153.38324,837.76016 150.6761,837.41372 C 153.48088,853.75305 149.36065,851.14915 142.5961,858.65692 C 146.64657,872.09301 142.74961,875.18771 145.42279,878.55275 z"
       id="path2262"
       style="opacity:1;fill:#000000;fill-opacity:1;fill-rule:evenodd;stroke:#000000;stroke-width:1px;stroke-linecap:butt;stroke-linejoin:miter;marker:none;marker-start:none;marker-mid:none;marker-end:none;stroke-miterlimit:4;stroke-dasharray:none;stroke-dashoffset:0;stroke-opacity:1;visibility:visible;display:inline;overflow:visible;enable-background:accumulate" />
    <path
       d="M 90.497822,829.66148 C 92.836862,834.86722 94.241302,843.46718 97.544932,843.39651 C 109.49531,843.14087 135.8974,850.29974 143.87487,863.77383 C 147.22661,860.62638 150.80672,857.31707 156.02655,855.32702 C 152.10975,850.54999 140.90869,838.43194 138.37152,842.02281 C 130.28789,853.46362 128.49997,849.57501 132.51392,837.94306 C 119.69527,831.31587 104.47741,829.84513 90.497822,829.66148 z"
       id="path3349"
       style="opacity:1;fill:#ffff00;fill-opacity:1;fill-rule:evenodd;stroke:#000000;stroke-width:1px;stroke-linecap:butt;stroke-linejoin:round;marker:none;marker-start:none;marker-mid:none;marker-end:none;stroke-miterlimit:4;stroke-dasharray:none;stroke-dashoffset:0;stroke-opacity:1;visibility:visible;display:inline;overflow:visible;enable-background:accumulate" />
    <path
       d="M 100.03005,846.93932 C 102.89425,846.30154 107.26052,849.53622 107.87395,851.02074 C 108.48097,852.4897 107.9308,852.26971 107.24005,851.7881 C 106.56998,851.32092 102.31645,849.159 100.60307,850.9009 C 98.931952,852.59985 97.178112,847.57437 100.03005,846.93932 z"
       id="path3353"
       style="opacity:1;fill:#000000;fill-opacity:1;fill-rule:evenodd;stroke:none;stroke-width:1px;stroke-linecap:butt;stroke-linejoin:miter;marker:none;marker-start:none;marker-mid:none;marker-end:none;stroke-miterlimit:4;stroke-dasharray:none;stroke-dashoffset:0;stroke-opacity:0.46732028;visibility:visible;display:inline;overflow:visible;enable-background:accumulate" />
    <path
       d="M 100.69447,857.40153 C 100.83841,856.94793 99.840752,856.48843 100.23267,854.93544 C 100.46715,854.00633 100.16134,853.74019 99.640992,853.66131 C 99.117052,853.58189 99.054882,853.23168 98.977792,852.86975 C 98.899892,852.50403 98.944032,851.3947 99.630612,852.16376 C 100.33209,852.9495 103.67543,852.82967 104.71128,853.76828 C 105.76953,854.72718 105.16507,855.5057 104.43317,854.94493 C 101.55759,852.74173 101.64851,855.28095 102.07987,856.87036 C 102.34516,857.84784 100.56188,857.81934 100.69447,857.40153 z"
       id="path3682"
       style="opacity:1;fill:#000000;fill-opacity:1;fill-rule:evenodd;stroke:none;stroke-width:1px;stroke-linecap:butt;stroke-linejoin:miter;marker:none;marker-start:none;marker-mid:none;marker-end:none;stroke-miterlimit:4;stroke-dasharray:none;stroke-dashoffset:0;stroke-opacity:0.46732028;visibility:visible;display:inline;overflow:visible;enable-background:accumulate" />
    <path
       d="M 95.630852,864.92403 C 96.336392,865.50652 96.710372,866.18184 97.325142,866.40654 C 97.929582,866.62746 98.111612,866.05747 97.869732,865.52914 C 97.622352,864.98877 96.619602,864.73487 95.630852,864.92403 z"
       id="path3684"
       style="opacity:1;fill:#000000;fill-opacity:1;fill-rule:evenodd;stroke:none;stroke-width:1px;stroke-linecap:butt;stroke-linejoin:miter;marker:none;marker-start:none;marker-mid:none;marker-end:none;stroke-miterlimit:4;stroke-dasharray:none;stroke-dashoffset:0;stroke-opacity:0.46732028;visibility:visible;display:inline;overflow:visible;enable-background:accumulate" />
    <path
       d="M 176.23108,854.45543 C 176.23108,855.99042 173.77508,856.14702 172.24008,856.14702 C 170.70511,856.14702 168.24912,855.3248 168.24912,853.78981 C 168.24912,851.71023 170.65964,851.58135 172.17957,851.79567 C 173.8961,852.03772 176.23108,852.92044 176.23108,854.45543 z"
       id="path14347"
       style="opacity:1;fill:#ffff00;fill-opacity:1;fill-rule:evenodd;stroke:#000000;stroke-width:1px;stroke-linecap:butt;stroke-linejoin:round;marker:none;marker-start:none;marker-mid:none;marker-end:none;stroke-miterlimit:4;stroke-dasharray:none;stroke-dashoffset:0;stroke-opacity:1;visibility:visible;display:inline;overflow:visible;enable-background:accumulate" />
    <path
       d="M 157.60118,898.90239 C 145.99633,904.18099 133.5621,911.65627 126.09782,927.76404"
       id="path3826"
       style="opacity:1;fill:none;fill-opacity:1;fill-rule:evenodd;stroke:#ffffff;stroke-width:1px;stroke-linecap:butt;stroke-linejoin:miter;marker:none;marker-start:none;marker-mid:none;marker-end:none;stroke-miterlimit:4;stroke-dasharray:none;stroke-dashoffset:0;stroke-opacity:1;visibility:visible;display:inline;overflow:visible;enable-background:accumulate" />
    <path
       d="M 111.21227,927.40104 C 116.87663,912.9334 127.43784,901.20225 140.77929,891.39911"
       id="path3688"
       style="opacity:1;fill:none;fill-opacity:1;fill-rule:evenodd;stroke:#ffffff;stroke-width:1px;stroke-linecap:butt;stroke-linejoin:miter;marker:none;marker-start:none;marker-mid:none;marker-end:none;stroke-miterlimit:4;stroke-dasharray:none;stroke-dashoffset:0;stroke-opacity:1;visibility:visible;display:inline;overflow:visible;enable-background:accumulate" />
    <path
       d="M 110.7663,882.96995 L 111.22654,894.26395 L 111.49002,899.39739 C 111.54334,900.6076 109.58819,903.78884 107.93824,903.89586"
       id="path3962"
       style="opacity:1;fill:none;fill-opacity:1;fill-rule:evenodd;stroke:#000000;stroke-width:1px;stroke-linecap:round;stroke-linejoin:round;marker:none;marker-start:none;marker-mid:none;marker-end:none;stroke-miterlimit:4;stroke-dasharray:none;stroke-dashoffset:0;stroke-opacity:1;visibility:visible;display:inline;overflow:visible;enable-background:accumulate" />
    <path
       d="M 85.918932,927.15894 C 86.484332,919.1552 87.905602,909.67951 90.083772,901.03064"
       id="path3830"
       style="opacity:1;fill:none;fill-opacity:1;fill-rule:evenodd;stroke:#ffffff;stroke-width:1px;stroke-linecap:butt;stroke-linejoin:miter;marker:none;marker-start:none;marker-mid:none;marker-end:none;stroke-miterlimit:4;stroke-dasharray:none;stroke-dashoffset:0;stroke-opacity:1;visibility:visible;display:inline;overflow:visible;enable-background:accumulate" />
  </g>
</svg>

<?xml version="1.0" encoding="UTF-8"?>
<svg version="1.0" viewBox="0 0 223.86 262.22" xmlns="http://www.w3.org/2000/svg">
<g transform="translate(-12.152 -789.2)">
<path d="m13.215 790.26 4.0316 169.36c2.8797 120.97 210.79 120.97 213.67 0l4.0316-169.36h-221.74z" fill="#fff" fill-rule="evenodd" stroke="#000" stroke-width="2.1253"/>
<path transform="translate(0 804.33)" d="m16.5 124.03 0.75 31.25c2.8797 120.97 210.78 120.97 213.66 0l0.75-31.25h-215.16z" fill="#de4229" fill-rule="evenodd" stroke="#000" stroke-width="2.126"/>
<path transform="matrix(.16632 0 0 .16632 -241.65 775.32)" d="m2501.7 442.75a12.586 12.586 0 1 1-25.172 0 12.586 12.586 0 1 1 25.172 0z" fill="#ff0" fill-rule="evenodd" stroke="#000" stroke-linejoin="round" stroke-width="6.0125px"/>
<path d="m176.85 859.82c-1.1942 3.5338 2.4579 10.218-1.0054 10.34-2.4682 0.08719-3.935-0.23582-5.8754-0.06838-1.8105 0.15624-3.166-0.73728-2.4951-2.3421 0.89531-2.1417 1.3524-4.2837 0.41189-7.1038-0.79711-2.3902 1.8581-4.5584 4.432-4.7136 2.4059-0.14507 5.2362 1.8038 4.532 3.8874z" fill="#ff0" fill-rule="evenodd" stroke="#000" stroke-linejoin="round" stroke-width="1px"/>
<path d="m108.34 894.97-17.214 20.937 31.828-0.12102 14.975-21.55c-2.6241-0.17033-3.3986-0.90302-3.221-6.8248l-10.665-44.116-25.309-1.853c-1.0188 2.6844-1.659 4.9627-2.9926 7.8697-1.366 2.9776 2.0987 2.168 0.64526 4.5272-1.4918 2.4215-3.1506 6.2658-4.646 8.372-1.4672 2.0666-0.30495 3.256 2.8202 4.3073 1.1501 0.38691 1.1826 0.64745 0.92893 1.3597-0.79845 2.2422-1.039 1.9538 0.46741 2.8528 1.1312 0.6751 0.57557 1.123 3.6821 0.61005-2.2422 0.12322-4.8844 1.7874-3.6986 2.5312 0.70867 0.4446 1.0495 0.60056 0.57067 2.0968-1.8466 5.7696 3.8653 7.3975 7.4009 7.0455 3.5356-0.35193 4.6905-0.01358 6.8562-0.04089 1.7815-0.02246 3.5529-0.22328 5.4894-1.0198-1.9366 0.79647-3.708 0.99729-5.4894 1.0198l0.46024 11.294" fill="#d5ab76" fill-rule="evenodd" stroke="#000" stroke-linejoin="round" stroke-width="1px"/>
<path d="m139.41 892.42c-9.3722 6.8866-16.695 14.232-22.188 23-5.7522-0.11144-11.691-0.22862-17.281-0.34375 2.3709-7.9084 5.8415-15.233 9.9687-21.062-6.5723 1.8311-13.75 4.7742-20 8.2188-0.21122 0.83869-0.39976 1.6682-0.59375 2.5-8.3845 3.819-15.213 9.5047-20.062 22.344l48.25 0.4687 8.5938 0.2188c0.02011-0.0434 0.04234-0.0818 0.0625-0.125l55.219 0.5312c0.27085-5.311-3.8986-11.297-8.8438-13.281 1.4908-7.2896-9.1963-6.8201-18.094-14.094 0.59885-0.2814 1.1791-0.60109 1.7812-0.875-5.3932-2.6345-10.508-5.7772-16.812-7.5z" fill="#0d090e" fill-rule="evenodd"/>
<path d="m97.295 927.16c1.6168-11.982 6.5014-25.763 13.933-33.586" fill="none" stroke="#fff" stroke-width="1px"/>
<path d="m145.42 878.55c2.847 3.5839 5.9538 11.302-3.3065 10.696-9.3455-0.61211-20.323-0.2708-23.042-12.45-2.6823-12.016 3.9114-26.424-12.469-34.714l-12.415-8.8256c24.389-42.247 78.436-21.57 80.337 9.2863 0.24533 3.9819-1.6541 4.2767-4.4002 2.8491-2.7713-1.4407-4.9544-2.1484-10.959-8.8529-1.8633 1.2986-5.7846 1.2188-8.4917 0.87239 2.8048 16.339-1.3154 13.735-8.08 21.243 4.0505 13.436 0.15351 16.531 2.8267 19.896z" fill-rule="evenodd" stroke="#000" stroke-width="1px"/>
<path d="m90.498 829.66c2.339 5.2057 3.7435 13.806 7.0471 13.735 11.95-0.25564 38.352 6.9032 46.33 20.377 3.3517-3.1474 6.9318-6.4568 12.152-8.4468-3.9168-4.777-15.118-16.895-17.655-13.304-8.0836 11.441-9.8716 7.5522-5.8576-4.0798-12.819-6.6272-28.037-8.0979-42.016-8.2816z" fill="#ff0" fill-rule="evenodd" stroke="#000" stroke-linejoin="round" stroke-width="1px"/>
<path d="m100.03 846.94c2.8642-0.63778 7.2305 2.5969 7.8439 4.0814 0.60702 1.469 0.05685 1.249-0.6339 0.76736-0.67007-0.46718-4.9236-2.6291-6.637-0.8872-1.6711 1.699-3.425-3.3265-0.57302-3.9616z" fill-rule="evenodd"/>
<path d="m100.69 857.4c0.14394-0.4536-0.85372-0.9131-0.4618-2.4661 0.23448-0.92911-0.07133-1.1952-0.59168-1.2741-0.52394-0.07942-0.58611-0.42963-0.6632-0.79156-0.0779-0.36572-0.03376-1.475 0.65282-0.70599 0.70148 0.78574 4.0448 0.66591 5.0807 1.6045 1.0582 0.9589 0.45379 1.7374-0.27811 1.1766-2.8756-2.2032-2.7847 0.33602-2.3533 1.9254 0.26529 0.97748-1.518 0.94898-1.3854 0.53117z" fill-rule="evenodd"/>
<path d="m95.631 864.92c0.70554 0.58249 1.0795 1.2578 1.6943 1.4825 0.60444 0.22092 0.78647-0.34907 0.54459-0.8774-0.24738-0.54037-1.2501-0.79427-2.2389-0.60511z" fill-rule="evenodd"/>
<path d="m176.23 854.46c0 1.535-2.456 1.6916-3.991 1.6916-1.535 0-3.991-0.82222-3.991-2.3572 0-2.0796 2.4105-2.2085 3.9304-1.9941 1.7165 0.24205 4.0515 1.1248 4.0515 2.6598z" fill="#ff0" fill-rule="evenodd" stroke="#000" stroke-linejoin="round" stroke-width="1px"/>
<path d="m157.6 898.9c-11.605 5.2786-24.039 12.754-31.503 28.862" fill="none" stroke="#fff" stroke-width="1px"/>
<path d="m111.21 927.4c5.6644-14.468 16.226-26.199 29.567-36.002" fill="none" stroke="#fff" stroke-width="1px"/>
<path d="m110.77 882.97 0.46024 11.294 0.26348 5.1334c0.05332 1.2102-1.9018 4.3914-3.5518 4.4985" fill="none" stroke="#000" stroke-linecap="round" stroke-linejoin="round" stroke-width="1px"/>
<path d="m85.919 927.16c0.5654-8.0037 1.9867-17.479 4.1648-26.128" fill="none" stroke="#fff" stroke-width="1px"/>
</g>
</svg>
